X:153
T:Pohlonesse ur Elias Annells notbok
T:(SmM I:153)
R:Polska
R:Slängpolska
O:Västervik, Småland
B:Småländsk Musiktradition
S:Elias Annell
N:1794
M:3/4
L:1/8
K:Dm
AB/c/ dd ee|ff/g/ aa/a/ ga|fe de fg/f/|(e/d/c/B/) A4:|
|:fg a2 f2|ag/f/ ef/g/ gf/e/|fg a2 f2|ag/f/ ef/g/ gf/e/|
fe/d/ c2 d2|(c/d/e/)c/ A2 a2|ge fd ec|d2 D4:|

